src/assets/duotone/CloudNotif.svg

<svg width="24" height="24" viewBox="0 0 24 24"  xmlns="http://www.w3.org/2000/svg">
<path opacity="0.4" d="M20.57 11.0099C19.81 10.0999 18.81 9.48994 17.67 9.23994C17.42 8.08994 16.96 7.08994 16.31 6.26994C16.29 6.23994 16.27 6.20994 16.25 6.18994C14.06 3.53994 10.47 3.54994 8.05004 4.91994C5.98004 6.09994 4.22004 8.58994 5.14004 12.1599C3.02004 12.6799 2.04004 14.5299 2.04004 16.1999C2.04004 18.0699 3.26004 20.1799 5.99004 20.3699H16.29C16.3 20.3699 16.32 20.3699 16.33 20.3699C17.75 20.3699 19.1 19.8499 20.14 18.8899C22.66 16.6899 22.33 13.0799 20.57 11.0099Z" />
<path d="M21.2698 8.76001C21.2698 9.78001 20.7998 10.7 20.0398 11.3C19.4898 11.75 18.7798 12.02 18.0098 12.02C16.2198 12.02 14.7598 10.56 14.7598 8.77001C14.7598 7.88001 15.1198 7.07001 15.7198 6.48001V6.47001C16.3098 5.88001 17.1198 5.51001 18.0098 5.51001C19.8098 5.51001 21.2698 6.97001 21.2698 8.76001Z" />
</svg>

<?xml version="1.0" encoding="UTF-8"?>
<svg width="24" height="24" viewBox="0 0 24 24" xmlns="http://www.w3.org/2000/svg">
 <path d="m20.57 11.01c-0.76-0.91-1.76-1.52-2.9-1.77-0.25-1.15-0.71-2.15-1.36-2.97-0.02-0.03-0.04-0.06-0.06-0.08-2.19-2.65-5.78-2.64-8.2-1.27-2.07 1.18-3.83 3.67-2.91 7.24-2.12 0.52-3.1 2.37-3.1 4.04 0 1.87 1.22 3.98 3.95 4.17h10.3 0.04c1.42 0 2.77-0.52 3.81-1.48 2.52-2.2 2.19-5.81 0.43-7.88z" opacity=".4"/>
 <path d="m21.27 8.76c0 1.02-0.47 1.94-1.23 2.54-0.55 0.45-1.26 0.72-2.03 0.72-1.79 0-3.25-1.46-3.25-3.25 0-0.89 0.36-1.7 0.96-2.29v-0.01c0.59-0.59 1.4-0.96 2.29-0.96 1.8 0 3.26 1.46 3.26 3.25z"/>
</svg>
